X: 104
T: A Birthday
R: polka
M: 2/4
K: Gmajor
Aa fa/f/|ec AG/F/|EG Bd|cA AE|
Aa fa|ec AG/F/|EG Bc/B/|A2- A:|
B2 Bd/B/|cA Ac|Be d/c/B|c/B/A A2|
B2 Bd|cA Ac|1 ef/e/ dB|cA A:|2 Be ^df|e2 c/d/||
dg eg/e/|dB G2|DF Ac|BG G2|
g2 e/f/g/e/|dB G/F/G/E/|DF AF|BG G:|
A2 Ac/A/|BG GD|Ad c/B/A/c/|BG G2|
A2 Ac|BG GB|1 de/d/ c/B/A/F/|GB G:|2 Ad/B/ ^c/d/e/f/|d2 G||

